X:1
T:Sechs Lieder
T:Sec hs Lieder für Sopran, Alt, Tenor und Bass im Freien zu singen (ERSTES HEFT) in Musik gesetzt von FELIX MENDELSSOHN BARTHOLDY Op. 41 _______________________________ 
T:CPDL - Creative Commons Attribution Non Commercial 3.0
T:CPDL - Creative Commons Attribution Non Commercial 3.0
T:CPDL - Creative Commons Attribution Non Commercial 3.0
T:CPDL - Creative Commons Attribution Non Commercial 3.0
T:CPDL - Creative Commons Attribution Non Commercial 3.0
T:CPDL - Creative Commons Attribution Non Commercial 3.0
T:CPDL - Creative Commons Attribution Non Commercial 3.0
T:CPDL - Creative Commons Attribution Non Commercial 3.0
T:CPDL - Creative Commons Attribution Non Commercial 3.0
T:CPDL - Creative Commons Attribution Non Commercial 3.0
T:CPDL - Creative Commons Attribution Non Commercial 3.0
T:CPDL - Creative Commons Attribution Non Commercial 3.0
T:CPDL - Creative Commons Attribution Non Commercial 3.0
T:CPDL - Creative Commons Attribution Non Commercial 3.0
T:CPDL - Creative Commons Attribution Non Commercial 3.0
T:CPDL - Creative Commons Attribution Non Commercial 3.0
T:CPDL - Creative Commons Attribution Non Commercial 3.0
T:CPDL - Creative Commons Attribution Non Commercial 3.0
T:CPDL - Creative Commons Attribution Non Commercial 3.0
T:CPDL - Creative Commons Attribution Non Commercial 3.0
T:CPDL - Creative Commons Attribution Non Commercial 3.0
T:CPDL - Creative Commons Attribution Non Commercial 3.0
T:CPDL - Creative Commons Attribution Non Commercial 3.0
T:CPDL - Creative Commons Attribution Non Commercial 3.0
T:CPDL - Creative Commons Attribution Non Commercial 3.0
T:CPDL - Creative Commons Attribution Non Commercial 3.0
T:CPDL - Creative Commons Attribution Non Commercial 3.0
C:Felix Mendelssohn Bartholdy
Z:CPDL - Creative Commons Attribution Non Commercial 3.0
%%score [ 1 2 3 4 ]
L:1/8
Q:1/4=72
M:2/4
K:A
V:1 treble nm="S"
V:2 treble nm="A"
V:3 treble-8 nm="T"
V:4 bass nm="B"
V:1
!p!"^Lento e dolce" E | A>G BA | d>c cB |!<(! Ac!<)! fe | e>d d!p!c | BB{d} cB | A2 E2 | z4 | z3 | %9
w: 1.~Ihr|Vö- gel in den|Zwei- gen schwank, wie|seid ihr froh und|frisch und frank, und|tril- lert Mor- gen-|chö- re.|||
w: 2.~Ein|Stünd- chen schleich' ich|bloß her- aus in|eu- er lu- stig|Som- mer- haus, und|muss mich dess be-|kla- gen.|||
w: 3.~Ihr|sucht der Bäu- me|grü- nes Dach, der|Wie- se Schmelz, den|Kie- sel- bach, ihr|flieht vor Stadt und|Mau- er,|||
"^cresc." c | cc ^d>c | c>^B B!p!G | =BB BB | B2 A2 | z A"^cresc." GF | (EG B)d | (c3 B) | A2 z2 | %18
w: Ich|füh- le mich im|Her- zen krank, wenn|ich's von un- ten|hö- re,|wenn ich's von|un- * * ten|hö- *|­re,|
w: Ihr|le- bet stets in|Saus und Braus, seht's|nach- ten hier und|ta- gen,|seht's nach- ten|hier _ _ und|ta- *|­gen,|
w: und|lasst die Men- schen|seuf- zen, ach! in|ih- rem Vo- gel-|bau- er,|in ih- rem|Vo- * * gel-|bau- *|­er,|
 z!f! c BA | (Gf e)d |!>(! (c3 B)!>)! | A2 z2 | z4 | z2 !fermata!z |] %24
w: wenn ich's von|un- * * ten|hö- *|re.|||
w: seht's nach- ten|hier _ _ und|ta- *|gen.|||
w: in ih- rem|Vo- * * gel-|bau- *|er.|||
[K:E][M:6/8]!p![Q:1/4=80]"^Andante" B | B2 G E2 F |!<(! G2!<)! A B2!p! G | (GF)G E2 B | (BA)B G3 | %29
w: 1.~Ent-|flieh' mit mir und|sei mein Weib, und|ruh' _ an mei- nem|Her- * zen aus;|
w: 2.~Und|fliehst du nicht, so|sterb' ich hier und|du _ bist ein- sam|und _ al- lein;|
w: |||||
!f! EGB e2 d | c2 ^B c3 |!p! ecA F2 c | B2 A G2 z |!f! EGB e2 d | c2 ^B c2 c | %35
w: in wei- ter Fer- ne|sei mein Herz|dir Va- ter- land und|Va- ter- haus,|in wei- ter Fer- ne|sei mein Herz dir|
w: und bleibst du auch im|Va- ter- haus,|wirst doch wie in der|Frem- de sein,|und bleibst du auch im|Va- ter- haus, wirst|
w: ||||||
 e3-!>(! (ec)!>)!!p!A | F2 G A2 D | E6- | E3- E2 |] %39
w: Va- * * ter-|land und Va- ter-|haus.|_ _|
w: doch _ _ wie|in der Frem- de|sein.|_ _|
w: ||||
[K:C][M:4/4]!p![Q:1/4=110]"^Un poco Allegro" .E2 | .c2 .B2 .A2 ^G>A | .B2 .E2 .A2 .E2 | %42
w: 1.~Es|fiel ein Reif in der|Früh- lings- nacht, er|
w: |||
w: |||
 .A2 ^G>A .B2 .E2 | .A2 ^G>A .B2 E2 |"^cresc." c4 d4 |!f! (e3 d) c2!p! (AB) | c2 BA ^G4 | %47
w: fiel auf die bun- ten|Blau- blü- me- lein, sie|sind ver-|wel- * ket, ver- *|wel- ket, ver- dor-|
w: |||||
w: |||||
 !fermata!A6 ||!p! .E2 | .c2 .B2 .A2 ^G>A | .B2 .E2 .A2 .E2 | .A2 (^G>A) .B2 .E.E | %52
w: ret.|2.~Ein|Jüng- ling hat- te ein|Mäd- chen lieb, sie|flo- hen _ heim- lich von|
w: |||||
w: |||||
 .A2 (^G>A) .B2 E2 | c4"^cresc." d2 d2 |!f! (e3 d) c2!p! AB | c2 BA ^G4 | !fermata!A6 ||!p! .E2 | %58
w: Hau- se * fort, es|wusst' we- der|Va- * ter, we- der|Va- ter noch Mut-|ter.|3.~Sie|
w: ||||||
w: ||||||
 .c2 .B2 .A2 (^G>A) | .B2 .E2 .A2 .E2 | A2 ^G>A B2 EE | A2 (^G>A) B2 E2 |"^cresc." c4 d4 | %63
w: sind ge- wan- dert _|hin und her, sie|ha- ben ge- habt we- der|Glück noch _ Stern, sie|sind ge-|
w: |||||
w: |||||
!f! (e3 d) c2!p! (A[Q:1/4=120]"^ritardando"B) | c2 BA ^G4 | !fermata!A6 |] %66
w: stor- * ben, ge- *|stor- ben, ver- dor-|ben.|
w: |||
w: |||
[K:E][M:4/4][Q:1/4=88]"^Assai sostenuto"!mf! E2 G>G | B3 B (^Ae)dc | c2 B!p!B (BF)G=A | %69
w: 1.~Auf ih- rem|Grab da steht _ ei- ne|Lin- de, drin pfei- * fen die|
w: |||
w: |||
 (Gc)BB (BF) (GA) | (Gc)B z"^cresc." F2 G^A | B2 cd e2 c2 | ^A2 z"^dim." B c2 B2 | %73
w: Vö- * gel und A- * bend- *|­win- * de, und drun- ter|sitzt auf dem grü- nen|Platz der Mül- lers-|
w: ||||
w: ||||
 =A2 G2!p! A2 (FB) | G2 z2 F2"^cresc." G^A | B2 cd (fe) (ec) | ^A2 z"^dim." B c2 B2 | %77
w: knecht mit sei- nem _|Schatz, und drun- ter|sitzt auf dem grü- * nen _|Platz der Mül- lers-|
w: ||||
w: ||||
 A2 G2!p! A2 F2 | !fermata!E3 ||!mf! E!<(! (E>G) (G>B)!<)! | B3 B (^Ae)dc | c2 BB!p! (BF) (G=A) | %82
w: knecht mit sei- nem|Schatz.|2.~Die Win- * de _|weh'n so still _ und so|schau- rig, die Vö- * gel _|
w: |||||
w: |||||
 (Gc)BB (BF)GA | (Gc)BG F2"^cresc." G^A | B2 cd e2 c2 | ^A2 z B"^dim." c2 BB | =A2 G2!p! A2 FB | %87
w: sin- * gen so süß _ und so|trau- * rig, die schwat- zen- den|Buh- len, sie wer- den|stumm, sie wei- nen und|wis- sen selbst nicht wa-|
w: |||||
w: |||||
 G2 z G F2"^cresc." G^A | B2 cd (fe) (ec) | ^A2 z!p! B c2 BB | =A2 G2!pp! A2 FF | E4 |] %92
w: ­rum, die schwat- zen- den|Buh- len, sie wer- * den _|stumm, sie wei- nen und|wis- sen selbst nicht wa-|rum.|
w: |||||
w: |||||
[K:Bb][M:4/4]!f![Q:1/4=120]"^Allegro" F (FB) (B d) | d3 d (e2 d>)c | B3!p! B B2 B2 | %95
w: 1.~Der Schnee * zer- *|rinnt, der Mai _ be-|ginnt, und Blü- ten|
w: 2.~Pflückt ei- * nen _|Kranz und hal- * tet|Tanz auf grü- nen|
w: |||
 (!>!d>c) BB B2 B2 | (!>!d>c) B"^cresc."B B2 B2 | (g2 =e)d c3 B | A2 z!p! A (dB) (AG) | %99
w: kei- * men auf Gar- ten-|bäu- * men, der Schnee zer-|rinnt, _ der Mai be-|ginnt, der Schnee * zer- *|
w: Au- * en, ihr schö- nen|Frau- * en, pflück ei- nen|Kranz _ und hal- tet|Tanz auf grü- * nen _|
w: ||||
 G2 z G (BG) (F=E) | F2 z!f! F (FA) (Ac) | e3 d c2 B2 | f8- | f6 z2 | z2 f2 (fe) (ed) | %105
w: rinnt, der Mai _ be- *|ginnt, und Vo- * gel- *|schall tönt ü- ber-|all|_|und Vo- * gel- *|
w: Au'n, ihr schö- * nen _|Frau'n, wo grü- * ne _|Mai'n uns Küh- lung|streu'n,|_|wo grü- * ne _|
w: ||||||
 (dc) (cB){c} (BA) (BG) | F2 z!f! F (FB) (Bd) | (d2 c>)B (d2 c>)B |"^dim." B8- | %109
w: schall _ tönt _ ü- * ber- *|all, und Vo- * gel- *|schall _ tönt ü- * ber-|all,|
w: Mai'n _ uns _ Küh- * lung _|streu'n, wo grü- * ne _|Mai'n _ uns Küh- * lung|streu'n,|
w: ||||
 B2 z!f! B[Q:1/4=110]"^ritard." (d2 c>)B | !fermata!B3 :| z z2 z2 | z8 | z2 z!pp! d d2 d2 | %114
w: _ tönt ü- * ber-|all.|||3.~Wer weiss, wie|
w: _ uns Küh- * lung|streu'n.||||
w: |||||
 d2!<(! d2 =e2 d2!<)! | ^c4 z4 | z2 A2 A2 d2 | d4 ^c4 | z2 A2 A2 d2 | ^c4 z4 | z8 | z4 z2 A2 | %122
w: bald die Glo- cke|schallt,|da wir des|Mai- en|uns nicht mehr|freu'n,||wer|
w: ||||||||
w: ||||||||
 A4 z2 A2 | (.A2 .d2 .c2 .B2) | A8- | A8- | A2!pp! (.=E2 .^C2 .E2) | !fermata!A3 || %128
w: weiss, wie|bald die Glo- cke|schallt,|_|* die Glo- cke|schallt!|
w: ||||||
w: ||||||
!f![Q:1/4=120]"^a tempo" F (FB) (B d) | d4 e2 d>c | B3!p! B B2 B2 | (!>!d>c) BB B2 B2 | %132
w: 4.~Drum wer- * det _|froh, Gott will es|so, der uns dies|Le- * ben zur Lust ge-|
w: ||||
w: ||||
 (!>!d>c) B"^cresc."B B2 B2 | g2 =ed c3 B | A2 z!p! A (dB) (AG) | G2 z2 (BG)F=E | %136
w: ge- * ben, drum wer- det|froh, Gott _ will es|so, drum wer- * det _|froh, Gott _ will es|
w: ||||
w: ||||
 F2 z!f! F (FA) (Ac) | _e3 d c2 B2 | f8- | f6 z2 | z2 f2 (fe) (ed) | (dc) (cB){c} (BA) (BG) | %142
w: so! Ge- nießt _ der _|Zeit, die Gott ver-|leiht,|_|ge- nießt _ der _|Zeit, _ die _ Gott _ ver- *|
w: ||||||
w: ||||||
 F2 z!f! F (FB) (Bd) | (d2 c>)B (d2 c>)B | B8- | B2 z B (d2[Q:1/4=110]"^ritard." c>)B | %146
w: leiht, ge- nießt _ der _|Zeit, _ die Gott _ ver-|leiht,|_ die Gott _ ver-|
w: ||||
w: ||||
 !fermata!B3 |][K:C][M:6/8]!f![Q:1/4=120]"^Allegro molto vivace" G Ge d | c2 c{d} (cB)c | d3 e3 | %150
w: leiht.|Und fri- * sche|Nah- rung neu- * es|Blut saug'|
w: ||||
w: ||||
 f2 e e2 d | c2!f! G c2 e | g6- | g z e e2 d | c3- c z B | A2 A{B} (A^G)A | d3- (dc)B | %157
w: ich aus frei- er|Welt; wie ist Na-|tur|_ so hold und|gut, _ die|mich am Bu- * sen|hält, _ _ die|
w: |||||||
w: |||||||
 A2!<(! A!<)!!>(! B2 A!>)! | G3 z2!p! G | A2 A A2 A | A2!<(! A B2 c!<)! |!>(! e2 d!>)! c2 A | %162
w: mich am Bu- sen|hält! Die|Wel- le wie- get|un- sern Kahn im|Ru- der- takt hin-|
w: |||||
w: |||||
 G3 z2 G | A2"^cresc." A A2 A | A2 A!<(! B2 c!<)! |!>(! e2 d!>)! B2 G | G2 z!f! c3 | f3 e3 | %168
w: auf, und|Ber- ge, wol- kig|him- mel- an, be-|geg- nen un- serm|Lauf, und|Ber- ge,|
w: ||||||
w: ||||||
 d3- (de)d | f3 e3 | d3 z2 d | d3- (ded | g2 e) (c2 A) | (G2 e) (d2 B) | c3 z2 z | (c2 e) (d2 B) | %176
w: wol- * * kig|him- mel-|an, be-|­geg- * * *|* * nen _|un- * serm _|Lauf,|un- * serm _|
w: ||||||||
w: ||||||||
 c6- | (c2 e) (d2 B) |"^dim." (c2 e) (d2 B) | (c2 e) (d2 B) | c6- | c3 z2 z | z6 |!pp! e3 d3 | %184
w: Lauf,|_ _ be- *|geg- * nen _|un- * serm _|Lauf.|_||Aug', mein|
w: ||||||||
w: ||||||||
 c3- c2 c |"^< >" d3 c3 | c3 B3- | B3 z2 z | z6 |!p! e3 d3 | ^c3- c2 c |"^< >" d3 ^c3 | ^c3 B3 | %193
w: Aug', _ was|sinkst du|nie- der?|_||Gold- ne|Träu- * me,|kommt ihr|wie- der?|
w: |||||||||
w: |||||||||
!<(! B3 ^c3!<)! | d6- |!>(! (d3 e3) | ^c6!>)! | z6 | z6 | B3- B2 ^c | B3 A3 | z6 | z6 | B3- B2 ^c | %204
w: kommt ihr|wie-||­der?|||gold- * ne|Träu- me,|||kommt _ ihr|
w: |||||||||||
w: |||||||||||
 B3 A2 z |!p! A3 A3 | A3!<(! A3 | ^G3 A3!<)! |!f! !fermata!^c6 | !fermata!B6 | z6 | z2 z!p! E3 | %212
w: wie- der?|gold- ne|Träu- me,|kommt ihr|wie-|der?||was|
w: ||||||||
w: ||||||||
!<(! A3 ^c3!<)! | ^c6 | B3 z2 z | z2 z!p! E3 |!<(! A3 ^c3!<)! | ^c6 | B3 z2 z | z6 | z6 | z6 | %222
w: sinkst du|nie-|der?|was|sinkst du|nie-|der?||||
w: ||||||||||
w: ||||||||||
!f! e3- e2 B | B3 B3 | =c3- c2 A | ^G6 | z6 |[Q:1/4=110]"^ritard." z6 | z6 | %229
w: Weg, _ du|Traum! so|Gold _ du|bist.||||
w: |||||||
w: |||||||
[Q:1/4=120]"^a tempo" z2!f! G (Ge)d | c2 c{d} (cB)c | d3 e3 | f2 e e2 d | c2!f! G c2 e | g6- | %235
w: Und fri- * sche|Nah- rung neu- * es|Blut saug'|ich aus frei- er|Welt; wie ist Na-|tur|
w: ||||||
w: ||||||
 g z e e2 d | c3- c z B | A2 A{B} (A^G)A | d3- (dc)B | A2!<(! A!<)!!>(! B2 A!>)! | G3 z2!p! G | %241
w: _ so hold und|gut, _ die|mich am Bu- * sen|hält, _ _ die|mich am Bu- sen|hält! Die|
w: ||||||
w: ||||||
 A2 A A2 A | A2 A!<(! B2 c!<)! |!>(! e2 d c2!>)! A | G3 z2 G | A2"^cresc." A A2 A | %246
w: Wel- le wie- get|un- sern Kahn im|Ru- der- takt hin-|auf, und|Ber- ge, wol- kig|
w: |||||
w: |||||
 A2 A!<(! B2 c!<)! |!>(! e2 d!>)! B2 G | G2 z!f! c3 | f3 e3 | d3- (de)d | f3 e3 | d3 z2 d | %253
w: him- mel- an, be-|geg- nen un- serm|Lauf, und|Ber- ge,|wol- * * kig|him- mel-|an, be-|
w: |||||||
w: |||||||
 d3- (ded | g2 e) (c2 A) | (G2 e) (d2 B) | c3 z2 z | (c2 e) (d2 B) | c6- | (c2 e) (d2 B) | %260
w: geg- * * *|* * nen _|un- * serm _|Lauf,|un- * serm _|Lauf,|_ _ be- *|
w: |||||||
w: |||||||
"^dim." (c2 e) (d2 B) | (c2 e) (d2 B) | c3 z2 z |!p! G3 G3 | G6 | E3 E3 |"^< >" !fermata!E6 |] %267
w: ­geg- * nen _|un- * serm _|Lauf,|un- serm|Lauf,|un- serm|Lauf.|
w: |||||||
w: |||||||
V:2
!p! E | E>E EE | A>A AG |!<(! AA!<)! AA | A>A A!p!A | GG GG |!p! A2 EE |{G} FE A>E | DC z | %9
w: 1.~Ihr|Vö- gel in den|Zwei- gen schwank, wie|seid ihr froh und|frisch und frank, und|tril- lert Mor- gen-|chö- re, und|tril- lert Mor- gen-|chö- re.|
w: 2.~Ein|Stünd- chen schleich' ich|bloß her- aus in|eu- er lu- stig|Som- mer- haus, und|muss mich dess be-|kla- gen, und|muss mich dess be-|kla- gen.|
w: 3.~Ihr|sucht der Bäu- me|grü- nes Dach, der|Wie- se Schmelz, den|Kie- sel- bach, ihr|flieht vor Stadt und|Mau- er, ihr|flieht vor Stadt und|Mau- er,|
"^cresc." E | FF FF | F>F F!p!F | ^EE EE | ^E2 F2 | F2"^cresc." B,B, | E3 G | G2 G z | (!>!AG) FE | %18
w: Ich|füh- le mich im|Her- zen krank, wenn|ich's von un- ten|hö- re,|wenn ich's von|un- ten|hö- re,|wenn _ ich's von|
w: Ihr|le- bet stets in|Saus und Braus, seht's|nach- ten hier und|ta- gen,|seht's nach- ten|hier und|ta- gen,|seht's _ nach- ten|
w: und|lasst die Men- schen|seuf- zen, ach! in|ih- rem Vo- gel-|bau- er,|in ih- rem|Vo- gel-|bau- er,|in _ ih- rem,|
 ^D2!f! DD | E2 G2 |!>(! G4!>)! | A2 z!p! E |{G} FE A>"^dim."E | DC !fermata!z |] %24
w: un- ten, von|un- ten|hö-|re. wenn|ich's von un- ten|hö- re.|
w: hier, nach- ten|hier und|ta-|gen. seht's|nach- ten hier und|ta- gen.|
w: in ih- rem|Vo- gel-|bau-|er. in|ih- rem Vo- gel-|bau- er.|
[K:E][M:6/8]!p! E | E2 B, B,2 D |!<(! E2!<)! E E2!p! E | D2 D E2 G | (GF)G E3 |!f! EEE G2 F | %30
w: ||||||
w: ||||||
w: ||||||
 (EG)F E3 |!p! EEE E2 E | D2 F E2 z |!f! B,EG G2 F | (EG)F E3 | z2!p! C E2 E | E3 z2 B, | %37
w: |||in wei- ter Fer- ne|sei * mein Herz|dir Va- ter-|land und|
w: |||und bleibst du auch im|Va- * ter- haus,|wirst doch wie|in der|
w: |||||||
 (B,2 E D2) C | B,3- B,2 |][K:C][M:4/4]!p! .E2 | .E2 .E2 .E2 E>E | .E2 .E2 .E2 .E2 | %42
w: Va- * * ter-|haus. _|_|||
w: Frem- * * de|sein. _|_|||
w: |||||
 .E2 E>A .^G2 .E2 | .E2 E>A .^G2 E2 |"^cresc." A4 B4 |!f! c4 E2!p! ^D2 | E8 | !fermata!E6 || %48
w: |||* * ver-|dor-|ret.|
w: ||||||
w: ||||||
!p! .E2 | .E2 .E2 .E2 E>E | .E2 .E2 .E2 .E2 | .E2 (E>A) .^G2 .E.E | .E2 (E>A) .^G2 E2 | %53
w: |||||
w: |||||
w: |||||
 A4"^cresc." B2 B2 |!f! c4 E2!p! ^D2 | E8 | !fermata!E6 ||!p! .E2 | .E2 .E2 .A2 .E2 | %59
w: |* * noch|Mut-|ter.|||
w: ||||||
w: ||||||
 .F2 .E2 .E2 .E2 | E2 E>A ^G2 EE | E2 (E>A) ^G2 E2 |"^cresc." A4 B4 |!f! c4 E2!p! ^D2 | E8 | %65
w: ||||* * ver-|dor-|
w: ||||||
w: ||||||
 !fermata!E6 |][K:E][M:4/4]!mf! B,2 E>E | E3 E (EG)FE | E2 D!p!D D2 EF | (EA)GG (GD) (EF) | %70
w: ben.|||||
w: |||||
w: |||||
 (EA)G z"^cresc." F2 FF | F2 FF F2 F2 | F2 z"^dim." F F2 G2 | D2 E2!p! F2 D2 | %74
w: ||||
w: ||||
w: ||||
 E2 z2 E2"^cresc." DC | F2 ^AB c2 A2 | F2 z"^dim." F F2 G2 | D2 E2!p! F2 D2 | !fermata!E3 || %79
w: |||||
w: |||||
w: |||||
!mf! B,!<(! B,2 E2!<)! | E3 E (EG)FE | E2 DD!p! D2 (EF) | (EA)GG (GD)EF | (EA)GE E2"^cresc." DC | %84
w: |||||
w: |||||
w: |||||
 F2 FF F2 F2 | F2 z F"^dim." F2 GG | D2 E2!p! F2 DD | E2 z E E2"^cresc." DC | F2 ^AB c2 A2 | %89
w: |||||
w: |||||
w: |||||
 F2 z!p! F F2 GG | D2 E2!pp! F2 DD | E4 |][K:Bb][M:4/4]!f! D D2 F2 | B3 B A3 A | %94
w: |||1.~Der Schnee zer-|rinnt, der Mai be-|
w: |||2.~Pflückt ei- nen|Kranz und hal- tet|
w: |||||
 B3!p! F (F=E) (DE) | F2 FF (F=E) (DE) | F2 F"^cresc."F (FA) (GF) | =E3 F G2 E2 | F2 z2!p! F4- | %99
w: ginnt, und Blü- * ten _|kei- men auf Gar- * ten _|bäu- men, der Schnee * zer- *|rinnt, der Mai be-|ginnt, ja,|
w: Tanz auf grü- * nen _|Au- en, ihr schö- * nen _|Frau- en, pflück ei- * nen _|Kranz und hal- tet|Tanz ja,|
w: |||||
 F2 F2 =E2 C2 | C2 z2 z4 | z8 | z2 z!f! A A2 c2 | F3 F E2 D2 | G8- | G2 C2 C2 ^C2 | %106
w: _ der Mai be-|ginnt,||und Vo- gel-|schall tönt ü- ber-|all|_ tönt ü- ber-|
w: _ und hal- tet|Tanz,||wo grü- ne|Mai'n uns Küh- lung|streu'n|_ uns Küh- lung|
w: |||||||
 D2 z!f! D (DF) (FB) | B3 F B2 A2 | B2 z!p! F (A2 G>)F | F2 z!f! D (F2 E>)D | !fermata!D3 :| %111
w: all und Vo- * gel- *|schall tönt ü- ber-|all, tönt ü- * ber-|all, tönt ü- * ber-|all.|
w: streu'n wo grü- * ne _|Mai'n uns Küh- lung|streu'n, uns Küh- * lung|streu'n, uns Küh- * lung|streu'n.|
w: |||||
!pp! F F2 F2 | ^F2 F2 F2 F2 |!<(! (G8!<)! | ^G8) | z2 =E2 A2 =G2 | G4 F4 | z2 =E2 A2 G2 | G4 F4 | %119
w: 3.~Wer weiss, wie|bald die Glo- cke|schallt,|_|da wir des|Mai- en|uns nicht mehr|freu- en,|
w: ||||||||
w: ||||||||
 z2 z!p! A B3 A | G2 F2 =E2 D2 | ^C4 z2 G2 | F4 z2 F2 | F8- | F2 (.A2 .G2 .F2) |!pp! =E8- | E8- | %127
w: wer weiss, wie|bald die Glo- cke|schallt, wer|weiss, wie|bald|_ die Glo- cke|schallt,|_|
w: ||||||||
w: ||||||||
 !fermata!E3 ||!f! F F2 F2 | B4 A2 A>A | B3!p! F (F=E) (DE) | F2 FF (F=E) (DE) | %132
w: |4.~Drum wer- det|froh, Gott will es|so, der uns _ dies _|Le- ben zur Lust _ ge- *|
w: |||||
w: |||||
 F2 F"^cresc."F (FA) (GF) | =E3 F G2 E2 | F2 z2!p! F4- | F2 F2 =E2 C2 | C2 z2 z4 | z8 | %138
w: ge- ben, drum wer- * det _|froh, Gott will es|so, Gott,|_ er will es|so!||
w: ||||||
w: ||||||
 z2 z!f! A A2 c2 | F3 F E2 D2 | G8- | G2 C2 C2 ^C2 | D2 z!f! D (DF) (FB) | B3 F B2 A2 | %144
w: Ge- nießt der|Zeit, die Gott ver-|leiht,|_ die Gott ver-|leiht, ge- nießt _ der _|Zeit, die Gott ver-|
w: ||||||
w: ||||||
 B2 z!p! F (A2 G>)F | F2 z!f! D (F2 E>)D | !fermata!D3 |][K:C][M:6/8]!f! E (EG) F | E2 E G2 G | %149
w: leiht, die Gott _ ver-|leiht, die Gott _ ver-|leiht.|Und fri- * sche|Nah- rung neu- es|
w: |||||
w: |||||
 G3 G3 | A2 G F2 F | E3 z2 z | z2!f! G c2 G | G3- G2 F | (E3 A2) G | G2 G G2 G | ^F3 G3 | %157
w: Blut saug'|ich aus frei- er|Welt;|wie ist Na-|tur _ so|gut, _ die|mich am Bu- sen|hält, am|
w: ||||||||
w: ||||||||
 (G3 ^F2) F | G2!p! D D2 D | E2 E E2 E | ^F6- | F3 ^F3 | G2 D D2 D | E2"^cresc." E E2 E | =F6 | %165
w: Bu- * sen|hält! Die Wel- le|wie- get un- sern|Kahn|_ hin-|auf, und Ber- ge,|wol- kig him- mel-|an,|
w: ||||||||
w: ||||||||
 F3- F2 F | E3 z2!f! E | F3 G3 | A3- A2 A | F3 G3 | A3- (ABA | G3-) G z G | G3 (A2 F) | %173
w: him- * mel-|­an, und|Ber- ge,|wol- * kig|him- mel-|an, _ _ _|_ _ be-|geg- nen _|
w: ||||||||
w: ||||||||
 (E2 G) (F2 G) | (E2 F E2 F | E2) z F3 | (E2 F) (E2 F) | E3 F3 |"^dim." (E3 F3) | E3 F3 | E6- | %181
w: un- * serm _|Lauf, _ _ _|_ be-|­geg- * nen _|un- serm|Lauf, _|_ _||
w: ||||||||
w: ||||||||
 E3 z2 z | z6 |!pp! c3 B3 | A3- A2 A |"^< >" B3 A3 | A3 ^G3- | G3 z2 z | z6 |!p! ^G3 G3 | %190
w: |||||||||
w: |||||||||
w: |||||||||
 A3- A2 A |"^< >" B3 A3 | A3 ^G3 |!<(! ^G3 A3!<)! | (A6 |!>(! ^G6) | A6!>)! |!p! A3 ^G3 | ^F3 E3 | %199
w: |||||||Aug', mein|Aug', was|
w: |||||||||
w: |||||||||
 D3- D2 E | D3 ^C3 | A3 ^G3 | ^F3 E3 | D3- D2 E | D3 ^C2 z |!p! ^C3 C3 | ^D3!<(! D3 | ^D3 D3!<)! | %208
w: sinkst _ du|nie- der?|gold- ne|Träu- me,||||||
w: |||||||||
w: |||||||||
!f! !fermata!E6 | !fermata!E6 | z6 | z2 z!p! E3 |!<(! E3 A3!<)! | A6 | ^G3 z2 z | z2 z!p! E3 | %216
w: ||||||||
w: ||||||||
w: ||||||||
!<(! E3 A3!<)! | A6 | ^G3 z2 z | z6 | z6 | z6 |!f! B3- B2 E | E3 E3 | E3- E2 E | E6 | z6 | z6 | %228
w: ||||||||||||
w: ||||||||||||
w: ||||||||||||
 z6 | z2!f! G (Gc)B | c2 G (GF)E | G3 G3 | A2 G F2 F | E3 z2 z | z2!f! G c2 G | G3- G2 F | %236
w: |Und fri- * sche|Nah- rung neu- * es|Blut saug'|ich aus frei- er|Welt;|wie ist Na-|­tur _ so|
w: ||||||||
w: ||||||||
 (E3 A2) G | G2 G G2 G | ^F3 G3 | (G3 ^F2) F | G2!p! D D2 D | E2 E E2 E | ^F6- | F3 ^F3 | %244
w: gut, _ die|mich am Bu- sen|hält, am|Bu- * sen|hält! Die Wel- le|wie- get un- sern|Kahn|_ hin-|
w: ||||||||
w: ||||||||
 G2 D D2 D | E2"^cresc." E E2 E | =F6 | F3- F2 F | E3 z2!f! E | F3 G3 | A3- A2 A | F3 G3 | %252
w: auf, und Ber- ge,|wol- kig him- mel-|an,|him- * mel-|an, und|Ber- ge,|wol- * kig|him- mel-|
w: ||||||||
w: ||||||||
 A3- (ABA | G3-) G z G | G3 (A2 F) | (E2 G) (F2 G) | (E2 F E2 F | E2) z F3 | (E2 F) (E2 F) | %259
w: an, _ _ _|_ _ be-|geg- nen _|un- * serm _|Lauf, _ _ _|_ be-|geg- * nen _|
w: |||||||
w: |||||||
 E3 F3 |"^dim." (E3 F3 | E3)!p! F3 | (E2 G) (F2 D) | (E2 G) (F2 D) | E6 | C3 C3 | %266
w: un- serm|Lauf, _|_ be-|geg- * nen _|un- * serm _|Lauf,|un- serm|
w: |||||||
w: |||||||
"^< >" !fermata!C6 |] %267
w: Lauf.|
w: |
w: |
V:3
!p! E | c>B dc | f>e ed |!<(! ce!<)! de | f>f f!p!d | dd{f} ed |!p! c2 cc | dc c>c | BA z | %9
w: |||||||||
w: |||||||||
w: |||||||||
"^cresc." c | cc cc | d>d d!p!^B | cc cc | c2 c2 | B2"^cresc." BA | (GB d)f | (e2 d2) | c2 z2 | %18
w: |||||wenn ich's von|un- * * ten|hö- *|re,|
w: |||||seht's nach- ten|hier * * und|ta- *|gen,|
w: |||||in ih- rem|Vo- * * gel-|bau- *|er,|
 z!f! A GA | (Bd c)B |!>(! (e3 d)!>)! | c2 z!p! c | dc c>"^dim."c | BA !fermata!z |] %24
w: wenn ich's von||||||
w: seht's nach- ten||||||
w: in ih- rem||||||
[K:E][M:6/8]!p! G | G2 B G2 B |!<(! B2!<)! A G2!p! B | A2 A G2 B | d2 B B3 |!f! GGG B2 A | %30
w: 1.~Ent-|flieh' mit mir und|sei mein Weib, und|ruh' an mei- nem|Her- zen aus;|in wei- ter Fer- ne|
w: 2.~Und|fliehst du nicht, so|sterb' ich hier und|du bist ein- sam|und al- lein;|und bleibst du auch im|
w: ||||||
 (Ge)d c3 |!p! ccc c2 F | F2 B B2 z |!f! GBe B2 A | (Ge)d c3 | z2!p! A c2 c | c3 z2 A | %37
w: sei * mein Herz|dir Va- ter- land und|Va- ter- haus,|||||
w: Va- * ter- haus,|wirst doch wie in der|Frem- de sein,|||||
w: |||||||
 (G2 c B2) A | G3- G2 |][K:C][M:4/4]!p! .E2 | .e2 .d2 .c2 B>c | .d2 .B2 .c2 .e2 | .c2 B>A .e2 .e2 | %43
w: ||1.~Es|fiel ein Reif in der|Früh- lings- nacht, er|fiel auf die bun- ten|
w: ||||||
w: ||||||
 .c2 B>A .e2 e2 |"^cresc." e4 f4 |!f! (g3 f) e2!p! A2 | A2 Bc (B2 e2) | !fermata!e6 ||!p! .E2 | %49
w: Blau- blü- me- lein, sie|sind ver-|wel- * ket, ver-|wel- ket, ver- dor- *|ret.|2.~Ein|
w: ||||||
w: ||||||
 .e2 .d2 .c2 B>c | .d2 .B2 .c2 .e2 | .c2 (B>A) .e2 .e.e | .c2 (B>A) .e2 e2 | e4"^cresc." f2 f2 | %54
w: Jüng- ling hat- te ein|Mäd- chen lieb, sie|flo- hen _ heim- lich von|Hau- se * fort, es|wusst' we- der|
w: |||||
w: |||||
!f! (g3 f) e2!p! AA | A2 Bc (B2 e2) | !fermata!e6 ||!p! .E2 | .e2 .d2 .c2 .A2 | .d2 .d2 .c2 .e2 | %60
w: Va- * ter, we- der|Va- ter noch Mut- *|ter.|3.~Sie|sind ge- wan- dert|hin und her, sie|
w: ||||||
w: ||||||
 c2 B>A e2 ee | c2 (B>A) e2 e2 |"^cresc." e4 f4 |!f! (g3 f) e2!p! A2 | A2 Bc (B2 e2) | %65
w: ha- ben ge- habt we- der|Glück noch _ Stern, sie|sind ge-|stor- * ben, ge-|stor- ben, ver- dor- *|
w: |||||
w: |||||
 !fermata!e6 |][K:E][M:4/4]!mf! G2 B>B | B3 B c2 ^AA | ^A2 B!p!B B2 BB | B2 BB B2 B2 | %70
w: ben.|1.~Auf ih- em|Grab da steht ei- ne|Lin- de, drin pfei- fen die|Vö- gel und A- bend-|
w: |||||
w: |||||
 e2 e z"^cresc." F2 fe | d2 cB ^A2 c2 | e2 z"^dim." d d2 e2 | B2 B2!p! B2 B2 | %74
w: ­win- de, und drun- ter|sitzt auf dem grü- nen|Platz der Mül- lers-|knecht mit sei- nem|
w: ||||
w: ||||
 B2 z2 ^A2"^cresc." fe | d2 cB ^A2 c2 | e2 z"^dim." d d2 e2 | B2 B2!p! B2 A2 | !fermata!G3 || %79
w: Schatz, und drun- ter|sitzt auf dem grü- nen|Platz der Mül- lers-|knecht mit sei- nem|Schatz.|
w: |||||
w: |||||
!mf! G!<(! G2 B2!<)! | B3 B c2 ^AA | ^A2 BB!p! B2 B2 | B2 BB B2 BB | e2 ee (^Ac)"^cresc."fe | %84
w: 2.~Die Win- de|weh'n so still und so|schau- rig, die Vö- gel|sin- gen so süß und so|trau- rig, die schwat- * zen- den|
w: |||||
w: |||||
 d2 cB ^A2 c2 | e2 z d"^dim." d2 ee | B2 B2!p! B2 BB | B2 z B (^Ac)"^cresc."fe | d2 cB ^A2 c2 | %89
w: Buh- len, sie wer- den|stumm, sie wei- nen und|wis- sen selbst nicht wa-|­rum, die schwat- * zen- den|Buh- len, sie wer- den|
w: |||||
w: |||||
 e2 z!p! d d2 ee | B2 B2!pp! B2 AA | G4 |][K:Bb][M:4/4]!f! B (Bd) (d f) | f3 f (g2 f>)e | %94
w: stumm, sie wei- nen und|wis- sen selbst nicht wa-|rum.|||
w: |||||
w: |||||
 d3!p! d B2 B2 | (B>c) dd B2 B2 | (B>c) d"^cresc."d B2 B2 | B3 B G2 c2 | F2 z2!p! G4- | %99
w: |||||
w: |||||
w: |||||
 G2 G2 G2 B2 | A2 z2 z4 | z8 | z2 z!f! F (FA) (Ac) | e3 d c2 B2 | B8- | B2 B2 B2 B2 | %106
w: |||||||
w: |||||||
w: |||||||
 B2 z!f! B (Bd) (df) | (f2 e>)d (f2 e>)d | d2 z!p! d (f2 e>)d | d2 z!f! B B2 A2 | !fermata!B3 :| %111
w: |||||
w: |||||
w: |||||
!pp! d d2 d2 | d2 d2 d2 d2 |!<(! d8-!<)! | d8 | z2 A2 ^c2 =e2 | =e4 d4 | z2 A2 ^c2 =e2 | =e4 d4 | %119
w: ||||||||
w: ||||||||
w: ||||||||
 z2 z!p! A B3 A | G2 z2 z4 | z4 z2 =e2 | d4 z2 d2 | d8- | d2 (.f2 .=e2 .d2) |!pp! ^c8- | c8- | %127
w: ||||||||
w: ||||||||
w: ||||||||
 !fermata!c3 ||!f! d d2 d2 | f4 g2 f>e | d3!p! d B2 B2 | (B>c) dd B2 B2 | (B>c) d"^cresc."d B2 B2 | %133
w: ||||||
w: ||||||
w: ||||||
 B3 B G2 c2 | F2 z2!p! G4- | G2 G2 G2 B2 | A2 z2 z4 | z8 | z2 z!f! F (FA) (Ac) | e3 d c2 B2 | B8- | %141
w: ||||||||
w: ||||||||
w: ||||||||
 B2 B2 B2 B2 | B3!f! B (Bd) (df) | (f2 e>)d (f2 e>)d | d2 z!p! d (f2 e>)d | d2 z!f! B B2 A2 | %146
w: |||||
w: |||||
w: |||||
 !fermata!B3 |][K:C][M:6/8]!f! G c2 B | c2 c (ef)e | d3 c3 | c2 c B2 B | c2!f! E G2 c | e6- | %153
w: |Und fri- sche|Nah- rung neu- * es|Blut saug'|ich aus frei- er|Welt; wie ist Na-|tur|
w: |||||||
w: |||||||
 e z c c2 B | c3- c z d | e2 e e2 e | d3- d2 d | (e3 d2) c | B2!p! B B2 B | c2 c c2 c | c6- | %161
w: _ so hold und|gut, _ die|mich am Bu- sen|hält, _ am|Bu- * sen|hält! Die Wel- le|wie- get un- sern|Kahn|
w: ||||||||
w: ||||||||
 c3 c3 | B2 B B2 B | ^c2"^cresc." c c2 c | d6- | d3 z2 z | z2!f! =c (cd)c | (cdc) (cdc) | %168
w: _ hin-|auf, und Ber- ge,|wol- kig him- mel-|an,|_|und Ber- * ge,|wol- * * kig _ _|
w: |||||||
w: |||||||
 (cd)c c3 | (cdc) (cdc) | (cdc) c3 | B3- B z B | c3 c3 | (c2 G) (B2 d) | (c2 A) (G2 A) | G6- | %176
w: him- * mel- an,|wol- * * kig _ _|him- * * mel-|an, _ be-|geg- nen|un- * serm _|Lauf, _ be- *|geg-|
w: ||||||||
w: ||||||||
 (G2 A) (G2 A) | G3 G3 |"^dim." G6 | G3 G3 | G6 |!pp! e3 e3 | e6- | e6- | e2 z z2 e | e3 e3 | %186
w: * * nen _|un- serm|Lauf,|un- serm|Lauf.|Aug',~ mein|Aug',|_|* was|sinkst du|
w: ||||||||||
w: ||||||||||
 e3 E3- | E3 z2 z | z6 |!p! B3 B3 | A3- A2 A |"^< >" ^G3 A3 | e6- |!<(! (e6!<)! | (^f6) |!>(! e6) | %196
w: nie- der?|_||Gold- ne|Träu- * me,|kommt ihr|wie-||||
w: ||||||||||
w: ||||||||||
 e6!>)! |!p! ^f3 e3 | d3 ^c3 | ^G3- G2 G | ^G3 A3 | ^f3 e3 | d3 ^c3 | (^G3 G2) G | ^G3 A2 z | %205
w: der?|||||||kommt _ ihr|wie- der?|
w: |||||||||
w: |||||||||
!p! A3 A3 | A3!<(! A3 | A3 A3!<)! |!f! !fermata!A6 | !fermata!^G6 |!f! e3- e2 E | E6- | E6 | z6 | %214
w: gold- ne|Träu- me,|kommt ihr|wie-|der?|Weg, _ du|Traum!|_||
w: |||||||||
w: |||||||||
!f! e3- e2 E | E6- | E6 | z6 |!f! e3- e2 B | B3 B3 | =c3- c2 A | ^G6 |!f! e6- | e2 z d3 | %224
w: weg, _ du|Traum!|_||weg, _ du|Traum! so|Gold _ du|bist.|weg,|_ so|
w: ||||||||||
w: ||||||||||
 c3- c2 c | B6 | z6 | z6 | z6 | z2!f! G g2 f | e2 e (ed)c | f3 e3 | c2 c B2 B | c2!f! E G2 c | %234
w: Gold _ du|bist.|||||||||
w: ||||||||||
w: ||||||||||
 e6- | e z c c2 B | c3- c z d | e2 e e2 e | d3- d2 d | (e3 d2) c | B2!p! B B2 B | c2 c c2 c | c6- | %243
w: |* so hold und|gut, _ die|mich am Bu- sen|hält, _ am|Bu- * sen||||
w: |||||||||
w: |||||||||
 c3 c3 | B2 B B2 B | ^c2"^cresc." c c2 c | d6- | d3 z2 z | z2!f! =c (cd)c | (cdc) (cdc) | %250
w: ||wol- kig him- mel-|an,|_|und Ber- * ge,|wol- * * kig _ _|
w: |||||||
w: |||||||
 (cd)c c3 | (cdc) (cdc) | (cdc) c3 | B3- B z B | c3 c3 | (c2 G) (B2 d) | (c2 A) (G2 A) | G6- | %258
w: him- * mel- an,|wol- * * kig _ _|him- * * mel-|an, _ be-|geg- nen|un- * serm _|Lauf, _ be- *|­geg-|
w: ||||||||
w: ||||||||
 (G2 A) (G2 A) | G3 G3 |"^dim." G6- | G3!p! G3 | (c2 e) (d2 B) | (c2 e) (d2 B) | c6 | G3 G3 | %266
w: * * nen _|_ _|||||||
w: ||||||||
w: ||||||||
"^< >" !fermata!G6 |] %267
w: |
w: |
w: |
V:4
!p! E, | A,>A, A,A, | A,>A, A,A, |!<(! A,A,!<)! DC | B,>B, B,!p!B,, | E,E, E,E, | A,2 A,2 | z4 | %8
w: ||||||||
w: ||||||||
 z3 |"^cresc." A, | A,A, A,A, | G,>G, G,!p!G, | G,G, G,C, | F,2 F,2 | D,2"^cresc." D,D, | E,3 E, | %16
w: ||||||||
w: ||||||||
 E,4 | F,2 z2 | z!f! F, F,F, | E,3 E, |!>(! E,4!>)! |!p! A,4- | A,4 | z2 !fermata!z |] %24
w: ||||||||
w: ||||||||
[K:E][M:6/8]!p! E, | E,2 E, E,2 B,, |!<(! (E,D,)!<)!C, B,,2!p! B,, | B,,2 B,, B,,2 B,, | %28
w: ||||
w: ||||
 B,,2 B,, E,3 |!f! E,E,E, E,2 F, | G,2 G, A,3 |!p! A,,A,,A,, A,,2 A,, | B,,2 D, E,2 z | %33
w: |||||
w: |||||
!f! E,E,E, E,2 F, | G,2 G, A,3 | z2!p! A,, A,2 A, | A,3 z2 B,, | E,3 E,3 | %38
w: |||* und|Va- ter-|
w: |||* der|Frem- de|
"^attacca" [E,,E,]3- [E,,E,]2 |][K:C][M:4/4]!p! .E,2 | .A,2 .A,2 .A,2 A,>A, | .E,2 .E,2 .A,,2 z2 | %42
w: haus. _|_|||
w: sein. _|_|||
 z8 | z4 z2 E,2 |"^cresc." A,4 G,4 |!f! C,4 C,2!p! F,2 | E,8 | !fermata!A,,6 ||!p! .E,2 | %49
w: |||* * ver-|dor-|ret.||
w: |||||||
 .A,2 .A,2 .A,2 A,>A, | .E,2 .E,2 .A,,2 z2 | z8 | z4 z2 E,2 | A,4"^cresc." G,2 G,2 | %54
w: |||||
w: |||||
!f! C,4 C,2!p! F,2 | E,8 | !fermata!A,,6 ||!p! .E,2 | .A,2 .E,2 .F,2 .C,2 | .D,2 .E,2 .A,,2 z2 | %60
w: * * noch|Mut-|ter.||||
w: ||||||
 z8 | z4 z2 E,2 |"^cresc." A,4 G,4 |!f! C,4 C,2!p! F,2 | E,8 |"^attacca" !fermata!A,,6 |] %66
w: |||* * ver-|dor-|ben.|
w: ||||||
[K:E][M:4/4]!mf! E,2 E,>E, | G,3 G, F,2 F,F, | F,2 B,,2 z4 | z8 | z4"^cresc." F,2 F,F, | %71
w: |||||
w: |||||
 F,2 F,F, F,2 F,2 | F,2 B,2"^dim." =A,2 G,2 | F,2 E,2!p! B,,2 B,,2 | E,2 z2 F,2"^cresc." F,F, | %75
w: |* der Mül- lers-|knecht * * *||
w: ||||
 F,2 F,F, F,2 F,2 | F,2"^der" B,2"^dim." =A,2 G,2 | F,2 E,2!p! B,,2 B,,2 | !fermata![E,,E,]3 || %79
w: ||||
w: ||||
!mf! E,!<(! E,2 (E,>G,)!<)! | G,3 G, F,2 F,F, | F,2 B,,2 z4 | z8 | z2 z!p! C, F,2"^cresc." F,F, | %84
w: |||||
w: |||||
 F,2 F,F, F,2 F,2 | F,2 B,2"^dim." =A,2 G,G, | F,2 E,2!p! B,,2 B,,B,, | %87
w: |stumm, sie wei- nen *||
w: |||
 E,2 z C, F,2"^cresc." F,F, | F,2 F,F, F,2 F,2 | F,2!p!"^sie" B,2 =A,2 G,G, | %90
w: |||
w: |||
 F,2 E,2!pp! B,,2 B,,B,, | [E,,E,]4 |][K:Bb][M:4/4]!f! B, B,2 B,2 | B,3 B, F,3 F, | %94
w: ||||
w: ||||
 B,3!p! B, G,2 G,2 | F,2 F,F, G,2 G,2 | F,2 F,"^cresc."F, G,2 G,2 | C,3 D, =E,2 C,2 | %98
w: ||||
w: ||||
 D,2 z2!p! B,,4- | B,,2 B,,2 C,2 C,2 | F,2 z2 z4 | z8 | z2 z!f! F, F,2 F,2 | F,3 G, A,2 B,2 | %104
w: ||||und Vo- gel-|schall tönt ü- ber-|
w: ||||wo grü- ne|Mai'n uns Küh- lung|
 E,8- | E,2 E,2 E,2 =E,2 | F,8- | F,2 z F, F,2 F,2 |"^dim." B,,8- | B,,2 z!f! B, F,2 F,2 | %110
w: all|_ tönt ü- ber-|all|_ tönt ü- ber-|all,|_ tönt ü- ber-|
w: streu'n|_ uns Küh- lung|streu'n|_ uns Küh- lung|streu'n,|_ uns Küh- lung|
 !fermata!B,,3 :|!pp! B, B,2 B,2 | B,2 B,2 B,2 B,2 |!<(! B,8-!<)! | (B,8 | A,4) z4 | z4!<(! D,4 | %117
w: all.|3.~Wer weiss, wie|bald die Glo- cke|schallt,|_||wer|
w: streu'n.|||||||
 A,8!<)! | z4!<(! D,4 | A,3!<)!!p! A, B,3 A, | G,2 F,2 =E,2 D,2 | ^C,4 z2 C,2 | D,4 z2 F,2 | A,8- | %124
w: weiss,|wie|bald, wer weiss, wie|bald die Glo- cke|schallt, wer|weiss, wie|bald|
w: |||||||
 A,8- | A,2!pp! (.=E,2 .^C,2 .E,2) | A,8- | !fermata!A,3 ||!f! D D2 (D B,) | F,4 F,2 F,>F, | %130
w: _|* die Glo- cke|schallt.|_|||
w: ||||||
 B,3!p! B, G,2 G,2 | F,2 F,F, G,2 G,2 | F,2 F,"^cresc."F, G,2 G,2 | C,3 D, =E,2 C,2 | %134
w: ||||
w: ||||
 D,2 z2!p! B,,4- | B,,2 B,,2 C,2 C,2 | F,2 z2 z4 | z8 | z2 z!f! F, F,2 F,2 | F,3 G, A,2 B,2 | %140
w: ||||||
w: ||||||
 E,8- | E,2 E,2 E,2 =E,2 | F,8- | F,2 z F, F,2 F,2 |"^dim." B,,8- | B,,2 z!f! B, F,2 F,2 | %146
w: |* * * ver-|leiht,|_ die Gott ver-|leiht,|_|
w: ||||||
 !fermata!B,,3 |][K:C][M:6/8]!f! G, G,2 G, | C2 C (CD)C | B,3 C3 | F,2 F, G,2 G, | C,3 z2 z | %152
w: ||||||
w: ||||||
 z2!f! C, E,2 G, | C3 G,3 | A,3- A, z B, | C2 C C2 C | (C3 B,2) B,, | C,3 D,3 | G,2!p! G, G,2 G, | %159
w: wie ist Na-|tur so|gut, _ _|_ _ _ _|* * am|Bu- sen||
w: |||||||
 G,2 G, G,2 G, | G,6- | G,3 G,3 | G,2 G, G,2 G, | G,2"^cresc." G, G,2 G, | G,6- | G,2 z!f! G,3 | %166
w: ||||||* und|
w: |||||||
 C3 _B,3 | A,3 G,3 | F,3- (F,G,)F, | A,3 G,3 | ^F,6 | (=F,G,)F, F,2 F, | E,3 F,3 | G,3 G,3 | C,6- | %175
w: Ber- ge,|wol- kig|wol- * * kig|him- mel-|an,|him- * mel- an, *|||Lauf,|
w: |||||||||
 C,2 z G,3 | C,6- | C,3 G,3 |"^dim." C,6- | C,3"^serm" C,3 |"^Lauf." C,6- | C,3 z2 z | z6 | z6 | %184
w: _ be-|geg-|* nen|un~~~~~~~~~~\-||||||
w: |||||||||
 z6 | z6 | z6 |!p! E,3 E,3 | E,6- | E,6- | E,6- | E,6- | E,3 E,3 |!<(! D,3 ^C,3!<)! | (B,,6 | %195
w: |||Gold- ne|Träu-||||* me,|kommt ihr|wie-|
w: |||||||||||
!>(! E,6) | A,,6-!>)! | A,,3 z2 z | z6 |!p! E,3- E,2 E, | E,3 A,,3 | z6 | z6 | E,3- E,2 E, | %204
w: |der?|_||gold- * ne|Träu- me,||||
w: |||||||||
 E,3 ^F,2 z |!p! ^F,3 F,3 | ^F,3!<(! F,3 | ^F,3 F,3!<)! |!f! !fermata!E,6 | !fermata!E,6 | z6 | %211
w: |||||||
w: |||||||
 z2 z!p! E,3 |!<(! ^C,3 A,,3!<)! | E,6 | E,3 z2 z | z2 z!p! E,3 |!<(! ^C,3 A,,3!<)! | E,6 | %218
w: was|sinkst du|nie-|der?|was|sinkst du|nie-|
w: |||||||
 E,3 z2 z | z6 | z6 | z6 |!f! ^G,3- G,2 G, | ^G,3 G,3 | A,3- A,2 A, | B,6 |!f! A,3 B,3 | C3 A,3 | %228
w: der?||||Weg, _ du|Traum! so|Gold _ du|bist.|Hier auch|Lieb' und|
w: ||||||||||
 =G,3 ^F,3 | G,6- | G, z!f! G, G,2 C | B,3 C3 | F,2 F, G,2 G, | C,3 z2 z | z2!f! C, E,2 G, | %235
w: Le- ben|ist.|_ Und neu- es|Blut saug'|ich aus frei- er|Welt;|wie ist Na-|
w: |||||||
 C3 G,3 | A,3- A, z B, | C2 C C2 C | (C3 B,2) B,, | C,3 D,3 | G,2!p! G, G,2 G, | G,2 G, G,2 G, | %242
w: tur so|gut, _ _|_ _ _ _|* * am|Bu- sen|||
w: |||||||
 G,6- | G,3 G,3 | G,2 G, G,2 G, | G,2"^cresc." G, G,2 G, | G,6- | G,2 z!f! G,3 | C3 _B,3 | %249
w: |||||* und|Ber- ge,|
w: |||||||
 A,3 G,3 | F,3- (F,G,)F, | A,3 G,3 | ^F,6 | (=F,G,)F, F,2 F, | E,3 F,3 | G,3 G,3 | C,6- | %257
w: wol- kig|wol- * * kig|him- mel-|an,|him- * mel- an, *|||Lauf,|
w: ||||||||
 C,2 z G,3 | C,6- | C,3 G,3 |"^dim." C,6- | C,3"^serm"!p! C,3 |"^Lauf," C,6- | C,2 z z2 z | z6 | %265
w: _ be-|geg-|* nen|un~~~~~~~~~\-|||||
w: ||||||||
 C,3 C,3 |"^< >" !fermata!C,6 |] %267
w: ||
w: ||

